.local/share/icons/Gruvbox-Plus-Dark/actions/16/wallet-open.svg

<svg xmlns="http://www.w3.org/2000/svg" width="16" height="16" viewBox="0 0 16 16">
 <defs>
  <style id="current-color-scheme" type="text/css">
   .ColorScheme-Text { color:#ebdbb2; } .ColorScheme-Highlight { color:#458588; }
  </style>
 </defs>
 <path style="fill:currentColor" class="ColorScheme-Text" d="M 4.6660156 1 C 3.7427156 1 3 1.7805 3 2.75 L 3 13.25 C 3 14.22 3.7427156 15 4.6660156 15 L 11.333984 15 C 12.256984 15 13 14.22 13 13.25 L 13 2.75 C 13 1.7805 12.256984 1 11.333984 1 L 4.6660156 1 z M 7 2 L 9 2 L 9 10 L 7 10 L 7 2 z M 7 11 L 9 11 L 9 13 L 7 13 L 7 11 z"/>
</svg>

<svg width="16" height="16" version="1.1" xmlns="http://www.w3.org/2000/svg">
  <defs>
    <style id="current-color-scheme" type="text/css">.ColorScheme-Text { color:#ebdbb2; } .ColorScheme-Highlight { color:#458588; }</style>
  </defs>
  <path class="ColorScheme-Text" d="m4.666 1c-0.9233 0-1.666 0.7805-1.666 1.75v10.5c0 0.97 0.7427 1.75 1.666 1.75h6.668c0.923 0 1.666-0.78 1.666-1.75v-10.5c0-0.9695-0.743-1.75-1.666-1.75zm2.334 2h2v7h-2zm0 8h2v2h-2z" fill="currentColor"/>
</svg>
